X: 1
T: Aunt Lisle's An Dro #1  [Am]
S: Gary Chapin
D: Accordionaire
N: Learned from Benoit Bourque who learned it from Alain Penneque (?).
Z: 2009 John Chambers <jc:trillian.mit.edu>
S: PDF MS of unknown origin from Steve Gruverman
M: 2/2
L: 1/8
K: Am
|: "Am"A2e2 e2de | "F"f2e2 "G"d2Bc | "G"d2B2 "Am"e2dc |1 "E"B2AB "Am"c2B2 :|2 "E"B2c2 "Am"A4 |]
|: "Am"A2A2 "E"B3B | "Am"A2A2 "E"B2Bc | "E"d2B2 "Am"e2dc |1 "E"B2AB "Am"c2B2 :|2 "E"B2c2 "Am"A4 |]
